X: 7486
T: Coachman's Whip, The
R: reel
M: 4/4
K: Amajor
e2 cA EAcA|F2 AF dFAF|EecA EAcA|GABd cAAc|
e2 cA EAcA|F2 AF dFAF|GABc defg|1 aedB cAAc:|2 aedB cAAF||
ECEF A3 c|e2 cA EAcA|F2 AF dFAF|ecBA FBAF|
ECEF A3 c|e2 cA EAcA|GABc defg|1 aedB cAAc:|2 aedB cA A2||

